icon/fa/atom.svg

<svg xmlns="http://www.w3.org/2000/svg" viewBox="0 0 512 512"><!--! Font Awesome Free 6.1.2 by @fontawesome - https://fontawesome.com License - https://fontawesome.com/license/free (Icons: CC BY 4.0, Fonts: SIL OFL 1.1, Code: MIT License) Copyright 2022 Fonticons, Inc.--><path d="M256 224c-17.6 0-32.9 14.4-32.9 32s15.3 32 32.9 32c17.63 0 32-14.38 32-32s-14.4-32-32-32zm214.2-96c-10.88-19.5-40.51-50.75-116.3-41.88C332.4 34.88 299.6 0 256 0s-76.4 34.88-97.9 86.12C82.34 77.38 52.71 108.5 41.83 128c-16.38 29.38-14.91 73.12 25.23 128-40.13 54.88-41.61 98.63-25.23 128 29.13 52.38 101.6 43.63 116.3 41.88C179.6 477.1 212.4 512 256 512s76.39-34.88 97.9-86.13C368.5 427.6 441 436.4 470.2 384c16.38-29.38 14.91-73.13-25.23-128 40.13-54.9 41.53-98.6 25.23-128zM95.34 352c-4.001-7.25-.125-24.75 15-48.25 6.876 6.5 14.13 12.87 21.88 19.12 1.625 13.75 4.001 27.13 6.751 40.13-24.671.9-39.881-4.4-43.631-11zm36.86-162.9c-7.7 6.3-15 12.7-21.9 19.1-15.08-23.4-18.96-41-14.96-48.2 3.376-6.125 16.38-11.5 37.88-11.5 1.75 0 3.876.375 5.751.375C136.1 162.2 133.8 175.6 132.2 189.1zM256 64c9.502 0 22.25 13.5 33.88 37.25C278.6 105 267.4 109.3 256 114.1c-11.4-4.8-22.6-9.1-33.9-12.9C233.7 77.5 246.5 64 256 64zm0 384c-9.502 0-22.25-13.5-33.88-37.25C233.4 407 244.6 402.7 256 397.9a437.89 437.89 0 0 0 33.88 12.89C278.3 434.5 265.5 448 256 448zm0-112c-44.13 0-80.02-35.88-80.02-80s35.92-80 80.02-80 80.02 35.88 80.02 80-35.92 80-80.02 80zm160.7 16c-3.626 6.625-19 11.88-43.63 11 2.751-12.1 5.126-26.38 6.751-40.13 7.752-6.25 15-12.63 21.88-19.12C416.8 327.2 420.7 344.8 416.7 352zm-15-143.8a368.765 368.765 0 0 0-21.88-19.12 442.887 442.887 0 0 0-6.751-40.25c1.875 0 4.001-.375 5.751-.375 21.5 0 34.51 5.375 37.88 11.5 4 7.245.1 24.845-15 48.245z"/></svg>

<svg xmlns="http://www.w3.org/2000/svg" viewBox="0 0 512 512" height="1em" width="1em">
<!--! Font Awesome Free 6.1.2 by @fontawesome - https://fontawesome.com License - https://fontawesome.com/license/free (Icons: CC BY 4.0, Fonts: SIL OFL 1.1, Code: MIT License) Copyright 2022 Fonticons, Inc.-->
  <path d="M256 224C238.4 224 223.1 238.4 223.1 256S238.4 288 256 288c17.63 0 32-14.38 32-32S273.6 224 256 224zM470.2 128c-10.88-19.5-40.51-50.75-116.3-41.88C332.4 34.88 299.6 0 256 0S179.6 34.88 158.1 86.12C82.34 77.38 52.71 108.5 41.83 128c-16.38 29.38-14.91 73.12 25.23 128c-40.13 54.88-41.61 98.63-25.23 128c29.13 52.38 101.6 43.63 116.3 41.88C179.6 477.1 212.4 512 256 512s76.39-34.88 97.9-86.13C368.5 427.6 441 436.4 470.2 384c16.38-29.38 14.91-73.13-25.23-128C485.1 201.1 486.5 157.4 470.2 128zM95.34 352c-4.001-7.25-.1251-24.75 15-48.25c6.876 6.5 14.13 12.87 21.88 19.12c1.625 13.75 4.001 27.13 6.751 40.13C114.3 363.9 99.09 358.6 95.34 352zM132.2 189.1C124.5 195.4 117.2 201.8 110.3 208.2C95.22 184.8 91.34 167.2 95.34 160c3.376-6.125 16.38-11.5 37.88-11.5c1.75 0 3.876 .375 5.751 .375C136.1 162.2 133.8 175.6 132.2 189.1zM256 64c9.502 0 22.25 13.5 33.88 37.25C278.6 105 267.4 109.3 256 114.1C244.6 109.3 233.4 105 222.1 101.2C233.7 77.5 246.5 64 256 64zM256 448c-9.502 0-22.25-13.5-33.88-37.25C233.4 407 244.6 402.7 256 397.9c11.38 4.875 22.63 9.135 33.88 12.89C278.3 434.5 265.5 448 256 448zM256 336c-44.13 0-80.02-35.88-80.02-80S211.9 176 256 176s80.02 35.88 80.02 80S300.1 336 256 336zM416.7 352c-3.626 6.625-19 11.88-43.63 11c2.751-12.1 5.126-26.38 6.751-40.13c7.752-6.25 15-12.63 21.88-19.12C416.8 327.2 420.7 344.8 416.7 352zM401.7 208.2c-6.876-6.5-14.13-12.87-21.88-19.12c-1.625-13.5-3.876-26.88-6.751-40.25c1.875 0 4.001-.375 5.751-.375c21.5 0 34.51 5.375 37.88 11.5C420.7 167.2 416.8 184.8 401.7 208.2z"/>
</svg>
